aircanada.svg

<svg viewBox="0 0 8 8" version="1.1" xmlns="http://www.w3.org/2000/svg" xmlns:xlink="http://www.w3.org/1999/xlink">
    <title>Path</title>
    <g id="Page-1" stroke="none" stroke-width="1" fill="none" fill-rule="evenodd">
        <path d="M4.1314554,5.55868545 C4.1314554,5.29577465 4.24413146,5.25821596 4.50704225,5.4084507 C4.95774648,5.6713615 5.4084507,5.89671362 5.4084507,5.89671362 C5.4084507,5.74647887 5.55868545,5.63380282 5.82159624,5.70892019 C6.08450704,5.78403756 6.34741784,5.82159624 6.34741784,5.82159624 C6.34741784,5.82159624 6.1971831,5.48356808 6.12206573,5.33333333 C6.00938967,5.07042254 6.12206573,4.92018779 6.23474178,4.88262911 C6.23474178,4.88262911 6.08450704,4.76995305 5.97183099,4.69483568 C5.74647887,4.54460094 5.78403756,4.35680751 6.00938967,4.28169014 C6.30985915,4.1314554 6.72300469,3.98122066 6.72300469,3.98122066 C6.61032864,3.90610329 6.4600939,3.71830986 6.61032864,3.45539906 C6.76056338,3.23004695 7.02347418,2.89201878 7.02347418,2.89201878 C7.02347418,2.89201878 6.61032864,2.89201878 6.30985915,2.89201878 C6.04694836,2.89201878 5.97183099,2.66666667 5.97183099,2.51643192 C5.97183099,2.51643192 5.55868545,2.81690141 5.25821596,3.00469484 C4.99530516,3.19248826 4.76995305,3.00469484 4.80751174,2.70422535 C4.88262911,2.25352113 4.92018779,1.72769953 4.92018779,1.72769953 C4.76995305,1.87793427 4.50704225,1.84037559 4.35680751,1.61502347 C4.16901408,1.23943662 3.98122066,0.788732394 3.98122066,0.788732394 C3.98122066,0.788732394 3.79342723,1.23943662 3.6056338,1.61502347 C3.49295775,1.84037559 3.23004695,1.87793427 3.07981221,1.76525822 C3.07981221,1.76525822 3.11737089,2.29107981 3.19248826,2.74178404 C3.23004695,3.00469484 3.00469484,3.19248826 2.74178404,3.00469484 C2.44131455,2.81690141 1.99061033,2.51643192 1.99061033,2.51643192 C1.99061033,2.66666667 1.91549296,2.85446009 1.65258216,2.89201878 C1.35211268,2.89201878 0.938967136,2.89201878 0.938967136,2.89201878 C0.938967136,2.89201878 1.20187793,3.23004695 1.35211268,3.45539906 C1.50234742,3.68075117 1.35211268,3.90610329 1.23943662,3.98122066 C1.23943662,3.98122066 1.61502347,4.16901408 1.95305164,4.28169014 C2.17840376,4.3943662 2.25352113,4.54460094 1.99061033,4.69483568 C1.91549296,4.76995305 1.72769953,4.88262911 1.72769953,4.88262911 C1.87793427,4.92018779 1.99061033,5.07042254 1.87793427,5.33333333 C1.8028169,5.48356808 1.65258216,5.82159624 1.65258216,5.82159624 C1.65258216,5.82159624 1.91549296,5.74647887 2.17840376,5.70892019 C2.44131455,5.63380282 2.55399061,5.78403756 2.5915493,5.89671362 C2.5915493,5.89671362 3.04225352,5.63380282 3.49295775,5.4084507 C3.71830986,5.25821596 3.8685446,5.33333333 3.8685446,5.55868545 L3.8685446,6.1971831 C3.8685446,6.57276995 3.79342723,6.94835681 3.68075117,7.17370892 C1.99061033,6.98591549 0.563380282,5.63380282 0.563380282,3.83098592 C0.563380282,1.99061033 2.10328638,0.488262911 4.01877934,0.488262911 C5.9342723,0.488262911 7.4741784,1.99061033 7.4741784,3.83098592 C7.4741784,5.55868545 6.12206573,6.98591549 4.3943662,7.17370892 L4.3943662,7.62441315 C6.42253521,7.43661972 8,5.82159624 8,3.83098592 C8,1.69014085 6.1971831,0 3.98122066,0 C1.8028169,0 0,1.69014085 0,3.79342723 C0,5.63380282 1.38967136,7.17370892 3.23004695,7.51173709 C3.53051643,7.58685446 3.71830986,7.62441315 3.90610329,7.81220657 C4.09389671,7.43661972 4.1314554,6.68544601 4.1314554,6.27230047 L4.1314554,5.55868545 Z" id="Path" fill="#F01428" fill-rule="nonzero"></path>
    </g>
</svg>

<svg viewBox="0 0 8 8" xmlns="http://www.w3.org/2000/svg"><path d="M4.131 5.559c0-.263.113-.3.376-.15.45.262.901.488.901.488 0-.15.15-.263.414-.188.263.075.525.113.525.113s-.15-.338-.225-.489c-.113-.263 0-.413.113-.45 0 0-.15-.113-.263-.188-.226-.15-.188-.338.037-.413.3-.15.714-.3.714-.3-.113-.076-.263-.264-.113-.527.15-.225.413-.563.413-.563H6.31c-.263 0-.338-.225-.338-.376 0 0-.413.3-.714.489-.263.187-.488 0-.45-.3.075-.451.112-.977.112-.977-.15.15-.413.112-.563-.113-.188-.376-.376-.826-.376-.826s-.188.45-.375.826c-.113.225-.376.263-.526.15 0 0 .037.526.112.977.038.263-.187.45-.45.263-.3-.188-.751-.489-.751-.489 0 .15-.076.338-.338.376H.939s.263.338.413.563c.15.226 0 .451-.113.526 0 0 .376.188.714.3.225.113.3.264.038.414-.076.075-.263.188-.263.188.15.037.263.187.15.45-.075.15-.225.489-.225.489s.262-.076.525-.113c.263-.075.376.075.414.188 0 0 .45-.263.901-.489.225-.15.376-.075.376.15v.64c0 .375-.076.75-.188.976C1.99 6.986.563 5.634.563 3.83c0-1.84 1.54-3.343 3.456-3.343 1.915 0 3.455 1.503 3.455 3.343 0 1.728-1.352 3.155-3.08 3.343v.45C6.423 7.437 8 5.822 8 3.831 8 1.691 6.197 0 3.981 0 1.803 0 0 1.69 0 3.793c0 1.84 1.39 3.38 3.23 3.719.3.075.488.112.676.3.188-.375.225-1.127.225-1.54V5.56Z" fill="#F01428" fill-rule="nonzero"/></svg>
